X:115
T:115 Cheshire Rounds
C:Welch MS
I:abc2nwc
M:6/4
L:1/8
K:D
g2f2e2d2f2a2|g2e2e2d2c2A2|g2f2e2d2f2a2|A2d2d2A2F2D2|
g2f2e2d2f2a2|g2e2e2d2c2A2|g2f2e2d2f2a2|A2d2d2A2F2D2||
G2B2F2A2E4|E2e2e2d2c2A2|G2B2F2A2E4|D2d2d2A2F2D2|
G2B2F2A2E4|E2e2e2d2c2A2|G2B2F2A2E4|D2d2d2A2F2D2|]


